!!!OTL: IM ANFANG WARS AUF ERDEN
!!!ARE: Europa, Mitteleuropa, Deutschland
!!!SCT: B0736
!!!YEM: Copyright 1995, estate of Helmut Schaffrath.
**kern
*ICvox
*Ivox
*M4/4
*k[f#]
*G:
{4dd
=1
4b
4g
4a
4b
=2
4.cc
8a
4f#}
{4d
=3
4g
4g
4cc
4b
=4
2a
4r}
{4dd
=5
4b
4g
4a
4b
=6
4.cc
8a
4f#}
{4d
=7
4g
8g
8a
4b
4a
=8
2g
2r}
=9
{4.dd
8dd
4dd
4dd
=10
2ee
4ee
4gg
=11
4ff#
4dd
4ee
4cc#
=12
2dd
4r}
{4dd
=13
2gg
2ff#
=14
2ee
2dd
=15
4dd
4cc
4b
4a
=16
2a
4b}
{4dd
=17
2gg
2ff#
=18
2ee
2dd
=19
4dd
4cc
4b
4a
=20
2a
4g}
==
!!!AGN: Lob - Lied, religioes
!!!ONB: ESAC (Essen Associative Code) Database: BOEHME
!!!AMT: simple quadruple
!!!AIN: vox
!!!EED: Helmut Schaffrath
!!!EEV: 1.0
*-
